icons/vespa_motorcycle.svg

<svg width="48" height="48" viewBox="0 0 48 48" fill="none" xmlns="http://www.w3.org/2000/svg">
<path fill-rule="evenodd" clip-rule="evenodd" d="M30.9027 17.4067C29.761 16.7024 29 15.44 29 14C29 13.8906 29.0044 13.7822 29.013 13.6751L25 12.9698L25.3462 11L29.684 11.7623C30.4029 10.699 31.6198 10 33 10H36.3846C36.7245 10 37 10.2755 37 10.6154V17.3846C37 17.7245 36.7245 18 36.3846 18H36V26.2498C36.2166 26.1878 36.4373 26.1368 36.6612 26.0973C38.3589 25.798 40.106 26.1853 41.5182 27.1741C42.6051 27.9352 43.425 29.0046 43.8816 30.2309C44.1943 31.0711 43.8601 31.8383 43.2868 32.2947C43.3899 34.966 41.5293 37.3842 38.8235 37.902C36.0638 38.43 33.3915 36.7962 32.5544 34.1869C32.0127 34.0053 31.5429 33.5964 31.3655 33H19.9776C19.725 35.8033 17.369 38 14.5 38C11.631 38 9.27503 35.8033 9.02242 33H4.46914C4.21004 33 4 32.801 4 32.5556C4 29.02 6.02684 25.9329 9.0398 24.2802C9.01389 24.1913 9 24.0973 9 24V21C9 19.3431 10.3431 18 12 18H21C22.6569 18 24 19.3431 24 21V24C24 24.5523 23.5523 25 23 25V26H29.2395L30.9027 17.4067ZM31 14C31 12.8954 31.8954 12 33 12H35V16H33C31.8954 16 31 15.1046 31 14ZM28.8524 28H23V31H28.2718L28.8524 28ZM30.3089 31H31.465C31.6527 30.2077 31.9893 29.4502 32.4654 28.7703C32.8898 28.1642 33.4101 27.6411 34 27.2178V18H32.825L30.3089 31ZM34.6588 34.0661C35.3419 35.4336 36.8724 36.239 38.4476 35.9376C39.9879 35.6429 41.0977 34.3805 41.2678 32.9007L34.6588 34.0661ZM11 21C11 20.4477 11.4477 20 12 20H21C21.5523 20 22 20.4477 22 21V23H11V21ZM6.17371 31C6.93449 27.6346 10.1126 25 14.0864 25H21V30.9676C20.9824 30.9815 20.9468 31 20.8889 31H6.17371ZM17.6192 33.0228C17.7446 33.0266 17.8576 33.031 17.9592 33.0358C17.7014 34.7145 16.2508 36 14.5 36C12.7492 36 11.2987 34.7145 11.0408 33.0359C11.1424 33.0311 11.2554 33.0267 11.3809 33.0229C12.1167 33.0006 13.1116 33.0004 14.5 33.0004C15.8885 33.0004 16.8834 33.0006 17.6192 33.0228ZM40.371 28.8124C39.3934 28.1278 38.1838 27.8597 37.0085 28.0669C35.8331 28.2742 34.7883 28.9398 34.1037 29.9175C33.6138 30.6172 33.3371 31.4358 33.2954 32.2756L41.9371 30.7519C41.6107 29.9769 41.0707 29.3023 40.371 28.8124Z" fill="black"/>
</svg>

<svg
  xmlns="http://www.w3.org/2000/svg"
  width="24"
  height="24"
  viewBox="0 0 24 24"
  fill="none"
  stroke="currentColor"
  stroke-width="2"
  stroke-linecap="round"
  stroke-linejoin="round"
>
  <path
    fill-rule="evenodd"
    d="M30.903 17.407a4 4 0 0 1-1.89-3.732L25 12.97l.346-1.97 4.338.762A4 4 0 0 1 33 10h3.385c.34 0 .615.275.615.615v6.77c0 .34-.276.615-.615.615H36v8.25q.325-.093.661-.153a6.5 6.5 0 0 1 7.22 4.134c.313.84-.02 1.607-.594 2.064a5.501 5.501 0 0 1-10.733 1.892c-.541-.182-1.011-.59-1.189-1.187H19.979a5.5 5.5 0 0 1-10.956 0H4.47A.457.457 0 0 1 4 32.556c0-3.536 2.027-6.623 5.04-8.276A1 1 0 0 1 9 24v-3a3 3 0 0 1 3-3h9a3 3 0 0 1 3 3v3a1 1 0 0 1-1 1v1h6.24zM31 14a2 2 0 0 1 2-2h2v4h-2a2 2 0 0 1-2-2m-2.148 14H23v3h5.272zm1.457 3h1.156A6.5 6.5 0 0 1 34 27.218V18h-1.175zm4.35 3.066a3.501 3.501 0 0 0 6.609-1.165zM11 21a1 1 0 0 1 1-1h9a1 1 0 0 1 1 1v2H11zM6.174 31c.76-3.365 3.939-6 7.912-6H21v5.968a.18.18 0 0 1-.111.032zm11.445 2.023q.189.006.34.013a3.5 3.5 0 0 1-6.918 0q.151-.008.34-.013C12.117 33 13.11 33 14.5 33s2.383 0 3.12.023m22.752-4.21a4.5 4.5 0 0 0-7.076 3.463l8.642-1.524a4.5 4.5 0 0 0-1.566-1.94"
    clip-rule="evenodd"
  />
</svg>
